images/footer-social/social-telegram.svg

<svg width="18" height="16" viewBox="0 0 18 16" fill="none" xmlns="http://www.w3.org/2000/svg">
<path d="M16.785 0.955705L0.840489 7.1042C-0.247661 7.54126 -0.241365 8.14828 0.640845 8.41897L4.73445 9.69597L14.2058 3.72014C14.6537 3.44766 15.0629 3.59424 14.7265 3.89281L7.05283 10.8183H7.05103L7.05283 10.8192L6.77045 15.0387C7.18413 15.0387 7.36669 14.8489 7.59871 14.625L9.58705 12.6915L13.7229 15.7464C14.4855 16.1664 15.0332 15.9506 15.2229 15.0405L17.9379 2.2453C18.2158 1.13107 17.5126 0.626562 16.785 0.955705Z" fill="#83B3D3"/>
</svg>

<svg width="18" height="16" viewBox="0 0 18 16" fill="none" xmlns="http://www.w3.org/2000/svg"><path d="M16.785.956.84 7.104C-.248 7.541-.24 8.148.64 8.42l4.094 1.277 9.472-5.976c.448-.272.857-.126.52.173l-7.673 6.925H7.05l.002.001-.283 4.22c.414 0 .597-.19.829-.414l1.988-1.934 4.136 3.055c.762.42 1.31.205 1.5-.706l2.715-12.795c.278-1.114-.425-1.618-1.153-1.29Z" fill="#83B3D3"/></svg>
